OTKit/otkit-icons/ic_warning_timeline.svg

<?xml version="1.0" encoding="UTF-8"?>
<svg width="24px" height="24px" viewBox="0 0 24 24" version="1.1" xmlns="http://www.w3.org/2000/svg" xmlns:xlink="http://www.w3.org/1999/xlink">
    <!-- Generator: Sketch 55.2 (78181) - https://sketchapp.com -->
    <title>icon/line/ic_warning_timeline/Fill-Color</title>
    <desc>Created with Sketch.</desc>
    <defs>
        <path d="M12.8733912,7.96892169 L16.5162721,14.4500183 C16.7868815,14.931463 16.6159657,15.5411233 16.134521,15.8117327 C15.9849071,15.8958274 15.8161675,15.94 15.6445393,15.94 L8.35877765,15.94 C7.8064929,15.94 7.35877765,15.4922847 7.35877765,14.94 C7.35877765,14.7683718 7.40295025,14.5996322 7.48704491,14.4500183 L11.1299257,7.96892169 C11.4005351,7.48747699 12.0101954,7.31656121 12.4916401,7.58717061 C12.6514834,7.67701493 12.7835469,7.80907848 12.8733912,7.96892169 Z M12.0016265,9.97367963 C11.7254841,9.97367963 11.5016265,10.1975373 11.5016265,10.4736796 L11.5016265,11.9590178 C11.5016265,12.2351602 11.7254841,12.4590178 12.0016265,12.4590178 L12.0017987,12.4590178 C12.277941,12.4590178 12.5017987,12.2351602 12.5017987,11.9590178 L12.5017987,10.4736796 C12.5017987,10.1975373 12.277941,9.97367963 12.0017987,9.97367963 L12.0016265,9.97367963 Z M11.9986941,13.4531531 C11.7241712,13.4531531 11.5016265,13.6756979 11.5016265,13.9502208 C11.5016265,14.2247436 11.7241712,14.4472884 11.9986941,14.4472884 L12.004731,14.4472884 C12.2792539,14.4472884 12.5017987,14.2247436 12.5017987,13.9502208 C12.5017987,13.6756979 12.2792539,13.4531531 12.004731,13.4531531 L11.9986941,13.4531531 Z" id="path-1"></path>
    </defs>
    <g id="icon/line/ic_warning_timeline/Fill-Color" stroke="none" stroke-width="1" fill="none" fill-rule="evenodd">
        <mask id="mask-2" fill="white">
            <use xlink:href="#path-1"></use>
        </mask>
        <use id="ic_warning_timeline" fill="#141A26" xlink:href="#path-1"></use>
    </g>
</svg>

<?xml version="1.0" encoding="UTF-8"?>
<svg width="24px" height="24px" viewBox="0 0 24 24" version="1.1" xmlns="http://www.w3.org/2000/svg" xmlns:xlink="http://www.w3.org/1999/xlink">
    <defs>
        <path id="a" d="M12.873 7.969l3.643 6.481a1 1 0 01-.871 1.49H8.359a1 1 0 01-.872-1.49l3.643-6.481a1 1 0 011.743 0zm-.871 2.005a.5.5 0 00-.5.5v1.485a.5.5 0 001 0v-1.485a.5.5 0 00-.5-.5zm-.003 3.48a.497.497 0 000 .993h.006a.497.497 0 100-.994h-.006z"/>
    </defs>
    <use fill="#141A26" fill-rule="evenodd" xlink:href="#a"/>
</svg>
